findly-builder/apps/searchassist/src/assets/icons/actions/link-bot.svg

<svg width="12" height="12" viewBox="0 0 12 12" fill="none" xmlns="http://www.w3.org/2000/svg">
<path d="M11.0415 0.960096C9.77804 -0.304328 7.73515 -0.322094 6.44995 0.920166L5.49634 1.86889L5.46258 1.90584C5.29371 2.10934 5.30405 2.41185 5.4942 2.60327C5.69625 2.80665 6.02478 2.80761 6.228 2.60541L7.17625 1.66194L7.23797 1.60448C8.11352 0.819546 9.46461 0.850746 10.3077 1.69447C11.1708 2.55829 11.1829 3.95502 10.3349 4.83371L8.68733 6.48249L8.62057 6.54663C8.16768 6.96405 7.56162 7.17723 6.94487 7.13303C6.29729 7.08661 5.70177 6.761 5.31289 6.2407C5.14124 6.01105 4.81607 5.96413 4.58659 6.13591C4.35712 6.3077 4.31024 6.63312 4.48189 6.86278C5.05113 7.62438 5.92282 8.101 6.87074 8.16894C7.81866 8.23688 8.74933 7.88944 9.4212 7.2168L11.0751 5.56165L11.1418 5.49041C12.3216 4.19492 12.2819 2.20153 11.0415 0.960096Z" fill="#202124"/>
<path d="M5.12926 3.83106C4.18134 3.76312 3.25067 4.11056 2.5788 4.7832L0.92495 6.43835L0.858153 6.50959C-0.321601 7.80508 -0.281934 9.79847 0.958528 11.0399C2.22196 12.3043 4.26485 12.3221 5.55005 11.0798L6.49921 10.13L6.53287 10.093C6.70115 9.889 6.68993 9.58652 6.49921 9.39566C6.29658 9.19287 5.96805 9.19287 5.76541 9.39566L4.82268 10.3391L4.76104 10.3965C3.88648 11.1805 2.53539 11.1493 1.69233 10.3055C0.829191 9.44171 0.817064 8.04498 1.66507 7.16629L3.31267 5.51751L3.37943 5.45337C3.83232 5.03595 4.43838 4.82277 5.05513 4.86697C5.70271 4.91339 6.29823 5.239 6.68711 5.7593C6.85876 5.98895 7.18393 6.03587 7.41341 5.86409C7.64288 5.6923 7.68976 5.36688 7.51811 5.13722C6.94887 4.37562 6.07718 3.899 5.12926 3.83106Z" fill="#202124"/>
</svg>

<svg width="12" height="12" fill="none" xmlns="http://www.w3.org/2000/svg"><path d="M11.041.96A3.274 3.274 0 0 0 6.45.92l-.954.949-.033.037a.52.52 0 0 0 .765.7l.948-.944.062-.058a2.235 2.235 0 0 1 3.07.09 2.24 2.24 0 0 1 .027 3.14L8.687 6.482l-.066.065a2.237 2.237 0 0 1-3.308-.306.519.519 0 1 0-.831.622 3.275 3.275 0 0 0 4.94.354l1.653-1.655.067-.072a3.281 3.281 0 0 0-.1-4.53Z" fill="#202124"/><path d="M5.13 3.831a3.274 3.274 0 0 0-2.551.952L.925 6.438l-.067.072a3.281 3.281 0 0 0 .1 4.53 3.274 3.274 0 0 0 4.592.04l.95-.95.033-.037a.52.52 0 0 0-.768-.697l-.942.943-.062.057a2.235 2.235 0 0 1-3.069-.09 2.24 2.24 0 0 1-.027-3.14l1.648-1.648.066-.065a2.237 2.237 0 0 1 3.308.306.519.519 0 1 0 .831-.622A3.275 3.275 0 0 0 5.13 3.831Z" fill="#202124"/></svg>
